communes/563.svg

<?xml version="1.0" encoding="UTF-8" standalone="no"?>
<svg
   xmlns:dc="http://purl.org/dc/elements/1.1/"
   xmlns:cc="http://web.resource.org/cc/"
   xmlns:rdf="http://www.w3.org/1999/02/22-rdf-syntax-ns#"
   xmlns:svg="http://www.w3.org/2000/svg"
   xmlns="http://www.w3.org/2000/svg"
   xmlns:xlink="http://www.w3.org/1999/xlink"
   xmlns:sodipodi="http://sodipodi.sourceforge.net/DTD/sodipodi-0.dtd"
   xmlns:inkscape="http://www.inkscape.org/namespaces/inkscape"
   height="763"
   width="603"
   version="1.0"
   id="svg20"
   sodipodi:version="0.32"
   inkscape:version="0.44.1"
   sodipodi:docname="Frutigen-coat of arms.svg"
   sodipodi:docbase="F:\MIS DOCUMENTOS\Mis imágenes\Encyclopédie\Escudos de Suiza">
  <metadata
     id="metadata31">
    <rdf:RDF>
      <cc:Work
         rdf:about="">
        <dc:format>image/svg+xml</dc:format>
        <dc:type
           rdf:resource="http://purl.org/dc/dcmitype/StillImage" />
        <dc:date>07-AUG-2006</dc:date>
        <dc:creator>
          <cc:Agent>
            <dc:title>Jérôme BLUM (wagner51)</dc:title>
          </cc:Agent>
        </dc:creator>
        <cc:license
           rdf:resource="http://creativecommons.org/licenses/GPL/2.0/" />
        <dc:coverage />
        <dc:description>Gabarit pour le Projet:Blasons de WIkipédia</dc:description>
        <dc:subject>
          <rdf:Bag>
            <rdf:li>blason suisse modèle gabarit projet blasons</rdf:li>
          </rdf:Bag>
        </dc:subject>
        <dc:language>fr</dc:language>
        <dc:title>Gabrit d'un blason suisse</dc:title>
      </cc:Work>
      <cc:License
         rdf:about="http://creativecommons.org/licenses/GPL/2.0/">
        <cc:permits
           rdf:resource="http://web.resource.org/cc/Reproduction" />
        <cc:permits
           rdf:resource="http://web.resource.org/cc/Distribution" />
        <cc:requires
           rdf:resource="http://web.resource.org/cc/Notice" />
        <cc:permits
           rdf:resource="http://web.resource.org/cc/DerivativeWorks" />
        <cc:requires
           rdf:resource="http://web.resource.org/cc/ShareAlike" />
        <cc:requires
           rdf:resource="http://web.resource.org/cc/SourceCode" />
      </cc:License>
    </rdf:RDF>
  </metadata>
  <defs
     id="defs29">
    <linearGradient
       id="linearGradient2893">
      <stop
         style="stop-color:#ffffff;stop-opacity:0.3137255;"
         offset="0"
         id="stop2895" />
      <stop
         id="stop2897"
         offset="0.19"
         style="stop-color:#ffffff;stop-opacity:0.25098041;" />
      <stop
         style="stop-color:#6b6b6b;stop-opacity:0.1254902;"
         offset="0.60000002"
         id="stop2901" />
      <stop
         style="stop-color:#000000;stop-opacity:0.1254902;"
         offset="1"
         id="stop2899" />
    </linearGradient>
    <linearGradient
       id="linearGradient2955">
      <stop
         style="stop-color:white;stop-opacity:0;"
         offset="0"
         id="stop2965" />
      <stop
         style="stop-color:black;stop-opacity:0.64583331;"
         offset="1"
         id="stop2959" />
    </linearGradient>
    <radialGradient
       inkscape:collect="always"
       xlink:href="#linearGradient2893"
       id="radialGradient3236"
       gradientUnits="userSpaceOnUse"
       gradientTransform="matrix(1.215027,1.531577e-24,1.464684e-23,1.266667,-839.1924,-490.4894)"
       cx="858.04236"
       cy="579.93323"
       fx="858.04236"
       fy="579.93323"
       r="300" />
  </defs>
  <sodipodi:namedview
     inkscape:window-height="682"
     inkscape:window-width="1024"
     inkscape:pageshadow="2"
     inkscape:pageopacity="0.0"
     guidetolerance="10.0"
     gridtolerance="10.0"
     objecttolerance="10.0"
     borderopacity="1.0"
     bordercolor="#666666"
     pagecolor="#ffffff"
     id="base"
     inkscape:zoom="0.54241072"
     inkscape:cx="275.22312"
     inkscape:cy="351.17912"
     inkscape:window-x="-4"
     inkscape:window-y="-4"
     inkscape:current-layer="layer2"
     showgrid="true" />
  <desc
     id="desc22">Coat of Arms of Canton of Freiburg (Fribourg)</desc>
  <g
     inkscape:groupmode="layer"
     id="layer1"
     inkscape:label="Fond écu"
     sodipodi:insensitive="true">
    <path
       id="path1899"
       d="M 1.5,1.49998 L 1.5,460.3679 C 1.5,626.6785 135.81456,761.5 301.49999,761.5 C 467.18543,761.5 601.5,626.6785 601.5,460.3679 L 601.5,1.49998 L 1.5,1.49998 z "
       style="fill:white;fill-opacity:1" />
  </g>
  <g
     inkscape:groupmode="layer"
     id="layer2"
     inkscape:label="Meubles"
     sodipodi:insensitive="true">
    <g
       id="g9257"
       transform="translate(0,2.05012)">
      <g
         transform="translate(12.23904,3.999999)"
         id="g9251">
        <path
           style="fill:#fcef3c;fill-opacity:1;fill-rule:evenodd;stroke:black;stroke-width:3.00000072;stroke-linecap:butt;stroke-linejoin:miter;stroke-miterlimit:4;stroke-dasharray:none;stroke-opacity:1"
           d="M 207.96155,132.02875 C 201.61866,161.57152 242.91017,159.83096 277.84229,162.26688 C 257.76956,164.91483 238.48402,170.18952 217.32871,169.32521 C 203.9887,168.78019 188.68475,162.73372 192.14181,144.15382 C 193.69268,135.81878 199.59887,133.7848 207.96155,132.02875 z "
           id="path6360"
           sodipodi:nodetypes="ccssc" />
        <path
           style="fill:#fcef3c;fill-opacity:1;fill-rule:evenodd;stroke:black;stroke-width:3.00000119;stroke-linecap:butt;stroke-linejoin:miter;stroke-miterlimit:4;stroke-dasharray:none;stroke-opacity:1"
           d="M 267.34285,113.36076 C 220.13589,89.112918 202.08881,119.91695 221.42576,142.51872 C 230.33735,120.139 262.05078,142.16215 272.10285,163.33765 C 259.32239,166.90369 262.14742,175.86674 233.98511,173.20529 C 244.55209,176.51094 232.68229,217.68252 300.26096,171.23178 L 267.34285,113.36076 z "
           id="path5473"
           sodipodi:nodetypes="cccccc" />
      </g>
      <path
         sodipodi:nodetypes="cccccccccccc"
         id="path5663"
         d="M 150.90843,555.52379 C 93.543318,489.22012 79.730747,521.83987 84.08415,540.15068 C 110.0721,522.86051 124.09305,557.14838 135.64534,564.0739 C 53.4963,551.3776 78.076519,604.716 94.222487,602.0099 C 95.734215,575.20841 121.85899,580.93532 138.79547,581.42381 C 104.68137,650.24654 148.73892,638.28546 157.3625,641.02917 C 135.70536,619.15648 149.19131,596.27386 160.08268,580.97565 C 178.56706,583.12128 208.16546,576.95497 213.79133,603.64865 C 212.0415,595.34761 267.96096,572.91228 162.42665,567.77726 L 236.46432,505.74921 L 199.09287,487.64768 C 199.09287,487.64768 150.90843,555.52379 150.90843,555.52379 z "
         style="fill:#fcef3c;fill-opacity:1;fill-rule:evenodd;stroke:black;stroke-width:3;stroke-linecap:butt;stroke-linejoin:miter;stroke-miterlimit:4;stroke-dasharray:none;stroke-opacity:1" />
      <path
         style="fill:#fcef3c;fill-opacity:1;fill-rule:evenodd;stroke:black;stroke-width:3;stroke-linecap:butt;stroke-linejoin:miter;stroke-miterlimit:4;stroke-dasharray:none;stroke-opacity:1"
         d="M 449.54377,555.26633 C 506.90888,488.96265 528.32657,517.77983 523.97317,536.09064 C 497.98522,518.80047 476.35915,551.82082 464.80686,558.74633 C 546.9559,546.05004 531.24832,599.38844 515.10235,596.68234 C 513.59063,569.88085 474.79064,571.80518 457.85415,572.29366 C 491.96825,641.1164 450.44575,635.49294 441.82218,638.23665 C 463.47932,616.36397 452.52841,588.41124 441.63705,573.11304 C 423.15267,575.25866 391.01922,577.96499 385.39335,604.65868 C 389.48925,598.58956 330.0246,579.44499 434.22297,561.18217 L 360.1853,496.61907 L 397.55675,478.51754 C 397.55675,478.51754 449.54377,555.26633 449.54377,555.26633 z "
         id="path7454"
         sodipodi:nodetypes="cccccccccccc" />
      <path
         sodipodi:nodetypes="csccccccccccscscscsccccccccccccccsscsscccccccccssccscsccccccccccccc"
         id="path1939"
         d="M 146.41665,55.248892 C 155.71018,92.701082 180.24209,139.68307 220.1745,207.97742 C 227.91647,221.21817 218.7698,252.44201 179.26964,240.32719 C 184.93665,258.8638 170.85024,284.34075 222.36784,286.76768 C 227.13,274.09682 229.74801,259.28185 248.67875,260.77962 L 257.56862,232.73666 L 246.80821,232.959 C 271.92509,203.59349 289.68484,207.28464 297.95828,188.53148 C 297.48092,168.63322 305.2475,140.01002 257.10424,107.72131 L 257.63337,107.2586 L 374.73557,105.71528 C 384.06924,99.235075 393.40294,98.702373 402.73661,95.830907 C 393.77922,114.47657 380.99351,126.00961 371.46605,134.53518 C 355.80763,148.54707 366.12304,174.39774 364.34794,194.24753 C 346.01928,159.54208 361.59746,250.99559 351.73798,234.62284 C 340.20097,215.46438 347.29672,252.72029 342.70865,258.94707 C 355.68928,258.64418 358.70126,274.48586 369.88358,279.21908 C 397.51595,290.91523 421.51155,273.77667 419.1631,239.64355 C 379.71747,243.52158 372.46794,222.88756 385.05445,194.01609 C 400.27817,159.09533 443.21925,109.4608 458.37783,53.919567 C 502.03036,56.721416 487.08114,125.22641 453.52584,185.33165 C 475.35064,149.42829 516.62606,125.11094 532.63894,55.429311 C 555.62588,78.806721 611.73847,91.971236 482.96062,214.37712 C 480.64406,220.94071 561.22471,174.75892 566.67883,159.30558 C 584.14915,239.13239 544.16727,243.38833 478.0042,263.29581 C 508.94884,266.53375 538.53172,274.87843 574.55024,259.08949 C 566.94625,284.50737 588.19313,348.2096 468.11978,304.70392 C 500.29504,322.23468 521.15226,350.41772 574.04702,348.44777 C 563.75265,373.77623 568.7415,442.6393 448.67384,338.5634 C 482.15987,376.53409 492.08372,410.46556 568.18854,455.74229 C 544.56455,466.43087 511.02112,533.3959 412.11776,352.4737 C 419.14389,364.81247 430.95695,439.30218 484.54628,484.56939 C 437.84494,503.10608 394.75105,489.1759 365.35442,351.97048 C 359.67064,364.92331 346.94265,373.59045 351.26369,398.23056 C 361.1394,454.54531 448.59687,516.18857 427.71819,502.18279 L 359.40859,514.58339 C 340.4957,495.79366 334.22527,479.52211 333.61518,464.21641 L 335.93131,411.5529 C 310.69836,473.20199 340.94431,567.30204 356.79933,564.36613 C 347.59386,563.92039 343.35542,571.7531 326.96579,559.33376 C 326.94125,608.84002 331.78726,654.27275 404.24631,643.1564 C 392.08925,664.9068 394.89044,698.16361 333.50787,682.04829 C 325.20461,698.00769 318.90961,716.64472 302.99069,722.44988 C 276.19068,712.39209 273.741,695.84087 265.93135,680.71896 C 247.44938,688.87556 213.10792,705.01663 192.17346,643.65966 C 231.75887,652.67091 266.80276,645.89497 278.51233,558.00443 C 267.0925,565.53277 254.85253,570.32721 239.44002,564.54655 C 274.72694,540.11163 273.98267,465.11166 256.80548,411.45629 C 256.80548,411.45629 260.87781,458.04516 261.15457,470.22427 C 261.71831,495.03309 250.16147,506.21121 241.13015,514.58339 L 174.23726,503.18927 C 235.84322,432.77943 235.39235,428.17342 239.62044,402.43687 C 244.50674,372.69368 234.25254,365.82471 231.56861,354.98989 C 206.15027,436.24306 195.87169,467.18561 169.83521,481.72651 C 138.26903,499.35566 107.63529,486.85292 110.50843,482.73684 C 171.53233,441.14741 163.24688,392.95709 188.32795,347.94455 C 133.48755,448.16681 80.127989,516.79777 33.26365,446.8644 C 95.033656,427.59821 102.75478,399.29732 150.26216,338.06018 C 119.22601,360.44211 47.399997,439.91947 32.257167,348.12497 C 58.19059,350.74683 99.921899,329.67193 141.56465,308.72982 C 65.622869,331.76121 22.532989,316.37258 25.715046,246.86931 C 57.205653,270.4882 93.544602,273.50154 130.31296,274.68992 C 86.638219,246.85243 15.320216,242.40542 36.10268,160.02722 C 66.381456,189.99035 98.085969,216.81689 135.02253,232.13294 C 50.067008,150.6162 12.672884,120.06339 60.581003,58.771564 C 64.818352,91.063072 105.41522,136.82109 144.9069,182.16977 C 139.62655,138.12774 80.223857,77.848969 146.41665,55.248892 z "
         style="fill:black;fill-opacity:1;fill-rule:evenodd;stroke:black;stroke-width:1.00000095px;stroke-linecap:butt;stroke-linejoin:miter;stroke-opacity:1" />
      <path
         sodipodi:nodetypes="cccccccccccccc"
         id="path7466"
         d="M 227.86304,55.521757 C 259.48215,88.49469 258.8477,106.43976 258.69066,106.85851 L 361.94474,106.85851 C 369.58439,93.096846 364.81266,81.403765 400.49492,62.96831 C 369.08576,47.603446 362.7941,74.940011 360.00252,70.333617 C 339.65393,52.107788 332.50568,88.796375 351.74028,84.047247 C 339.09497,101.70382 331.02685,96.20983 323.66384,84.047247 C 339.16187,75.52759 329.14005,62.962865 320.62,63.486816 C 325.43008,49.978302 316.97688,44.876697 311.82631,39.734061 C 294.96664,50.403507 301.18079,66.429493 303.58501,64.140744 C 293.77087,60.993068 284.67359,77.547246 297.78829,84.047247 C 286.09505,104.15844 275.43128,92.407681 270.11943,84.450867 C 303.8427,73.655334 266.37224,50.859281 262.13975,68.395595 C 253.84893,44.205928 238.93821,54.476577 227.86304,55.521757 z "
         style="fill:#fcef3c;fill-opacity:1;fill-rule:evenodd;stroke:black;stroke-width:3;stroke-linecap:butt;stroke-linejoin:miter;stroke-miterlimit:4;stroke-dasharray:none;stroke-opacity:1" />
      <path
         sodipodi:nodetypes="cccccc"
         id="path7247"
         d="M 280.5,111.41937 C 296.08071,163.70476 335.7075,133.9353 329.86715,111.34158 L 306.61534,112.42449 C 305.83309,120.40029 307.2122,125.03126 312.77103,123.19379 C 298.21582,129.38196 292.52796,121.2983 292.44044,111.79437 L 280.5,111.41937 z "
         style="fill:white;fill-opacity:1;fill-rule:evenodd;stroke:black;stroke-width:0.99999958px;stroke-linecap:butt;stroke-linejoin:miter;stroke-opacity:1" />
    </g>
  </g>
  <g
     inkscape:groupmode="layer"
     id="layer3"
     inkscape:label="Reflet final"
     style="display:inline"
     sodipodi:insensitive="true">
    <path
       style="fill:url(#radialGradient3236);fill-opacity:1"
       d="M 1.5,1.5 L 1.5,460.3679 C 1.5,626.67854 135.81454,761.5 301.49993,761.5 C 467.1854,761.5 601.5,626.67854 601.5,460.3679 L 601.5,1.5 L 1.5,1.5 z "
       id="path2346" />
  </g>
  <g
     inkscape:groupmode="layer"
     id="layer4"
     inkscape:label="Contour final"
     style="display:inline"
     sodipodi:insensitive="true">
    <path
       style="fill:none;fill-opacity:1;stroke:#000000;stroke-width:3;stroke-miterlimit:4;stroke-dasharray:none;stroke-opacity:1"
       d="M 1.5,1.5 L 1.5,460.36794 C 1.5,626.67854 135.81454,761.5 301.49993,761.5 C 467.1854,761.5 601.5,626.67854 601.5,460.36794 L 601.5,1.5 L 1.5,1.5 z "
       id="path3239" />
  </g>
</svg>

<?xml version="1.0" encoding="UTF-8"?>
<svg version="1.0" viewBox="0 0 603 763" xmlns="http://www.w3.org/2000/svg" xmlns:cc="http://web.resource.org/cc/" xmlns:dc="http://purl.org/dc/elements/1.1/" xmlns:rdf="http://www.w3.org/1999/02/22-rdf-syntax-ns#" xmlns:xlink="http://www.w3.org/1999/xlink">
<metadata>
<rdf:RDF>
<cc:Work rdf:about="">
<dc:format>image/svg+xml</dc:format>
<dc:type rdf:resource="http://purl.org/dc/dcmitype/StillImage"/>
<dc:date>07-AUG-2006</dc:date>
<dc:creator>
<cc:Agent>
<dc:title>Jérôme BLUM (wagner51)</dc:title>
</cc:Agent>
</dc:creator>
<cc:license rdf:resource="http://creativecommons.org/licenses/GPL/2.0/"/>
<dc:coverage/>
<dc:description>Gabarit pour le Projet:Blasons de WIkipédia</dc:description>
<dc:subject>
<rdf:Bag>
<rdf:li>blason suisse modèle gabarit projet blasons</rdf:li>
</rdf:Bag>
</dc:subject>
<dc:language>fr</dc:language>
<dc:title>Gabrit d'un blason suisse</dc:title>
</cc:Work>
<cc:License rdf:about="http://creativecommons.org/licenses/GPL/2.0/">
<cc:permits rdf:resource="http://web.resource.org/cc/Reproduction"/>
<cc:permits rdf:resource="http://web.resource.org/cc/Distribution"/>
<cc:requires rdf:resource="http://web.resource.org/cc/Notice"/>
<cc:permits rdf:resource="http://web.resource.org/cc/DerivativeWorks"/>
<cc:requires rdf:resource="http://web.resource.org/cc/ShareAlike"/>
<cc:requires rdf:resource="http://web.resource.org/cc/SourceCode"/>
</cc:License>
</rdf:RDF>
</metadata>
<defs>
<radialGradient id="a" cx="858.04" cy="579.93" r="300" gradientTransform="matrix(1.215 1.5316e-24 1.4647e-23 1.2667 -839.19 -490.49)" gradientUnits="userSpaceOnUse">
<stop stop-color="#fff" stop-opacity=".31373" offset="0"/>
<stop stop-color="#fff" stop-opacity=".25098" offset=".19"/>
<stop stop-color="#6b6b6b" stop-opacity=".12549" offset=".6"/>
<stop stop-opacity=".12549" offset="1"/>
</radialGradient>
</defs>
<desc>Coat of Arms of Canton of Freiburg (Fribourg)</desc>
<path d="m1.5 1.5v458.87c0 166.31 134.31 301.13 300 301.13 165.69 0 300-134.82 300-301.13v-458.87h-600z" fill="#fff"/>
<g transform="translate(0 2.0501)" fill-rule="evenodd" stroke="#000">
<g transform="translate(12.239 4)" fill="#fcef3c">
<path d="m207.96 132.03c-6.3429 29.543 34.949 27.802 69.881 30.238-20.073 2.648-39.358 7.9226-60.514 7.0583-13.34-0.54502-28.644-6.5915-25.187-25.171 1.5509-8.335 7.4571-10.369 15.82-12.125z" stroke-width="3"/>
<path d="m267.34 113.36c-47.207-24.248-65.254 6.5562-45.917 29.158 8.9116-22.38 40.625-0.35657 50.677 20.819-12.78 3.566-9.9554 12.529-38.118 9.8676 10.567 3.3056-1.3028 44.477 66.276-1.9735l-32.918-57.871z" stroke-width="3"/>
</g>
<path d="m150.91 555.52c-57.365-66.304-71.178-33.684-66.824-15.373 25.988-17.29 40.009 16.998 51.561 23.923-82.149-12.696-57.569 40.642-41.423 37.936 1.5117-26.801 27.637-21.075 44.573-20.586-34.114 68.823 9.9434 56.862 18.567 59.605-21.657-21.873-8.1712-44.755 2.7202-60.054 18.484 2.1456 48.083-4.0207 53.709 22.673-1.7498-8.301 54.17-30.736-51.365-35.871l74.038-62.028-37.371-18.102s-48.184 67.876-48.184 67.876z" fill="#fcef3c" stroke-width="3"/>
<path d="m449.54 555.27c57.365-66.304 78.783-37.486 74.429-19.176-25.988-17.29-47.614 15.73-59.166 22.656 82.149-12.696 66.441 40.642 50.295 37.936-1.5117-26.801-40.312-24.877-57.248-24.389 34.114 68.823-7.4084 63.199-16.032 65.943 21.657-21.873 10.706-49.825-0.18513-65.124-18.484 2.1456-50.618 4.852-56.244 31.546 4.0959-6.0691-55.369-25.214 48.83-43.477l-74.038-64.563 37.371-18.102s51.987 76.749 51.987 76.749z" fill="#fcef3c" stroke-width="3"/>
<path d="m146.42 55.249c9.2935 37.452 33.825 84.434 73.758 152.73 7.742 13.241-1.4047 44.465-40.905 32.35 5.667 18.537-8.4194 44.014 43.098 46.44 4.7622-12.671 7.3802-27.486 26.311-25.988l8.8899-28.043-10.76 0.22234c25.117-29.366 42.877-25.674 51.15-44.428-0.47736-19.898 7.2892-48.521-40.854-80.81l0.52913-0.46271 117.1-1.5433c9.3337-6.4802 18.667-7.0129 28.001-9.8844-8.9574 18.646-21.743 30.179-31.271 38.704-15.658 14.012-5.343 39.863-7.1181 59.712-18.329-34.705-2.7505 56.748-12.61 40.375-11.537-19.158-4.4413 18.097-9.0293 24.324 12.981-0.30289 15.993 15.539 27.175 20.272 27.632 11.696 51.628-5.4424 49.28-39.576-39.446 3.878-46.695-16.756-34.109-45.627 15.224-34.921 58.165-84.555 73.323-140.1 43.653 2.8018 28.703 71.307-4.852 131.41 21.825-35.903 63.1-60.221 79.113-129.9 22.987 23.377 79.1 36.542-49.678 158.95-2.3166 6.5636 78.264-39.618 83.718-55.072 17.47 79.827-22.512 84.083-88.675 103.99 30.945 3.2379 60.528 11.583 96.546-4.2063-7.604 25.418 13.643 89.12-106.43 45.614 32.175 17.531 53.032 45.714 105.93 43.744-10.294 25.328-5.3055 94.192-125.37-9.8844 33.486 37.971 43.41 71.902 119.51 117.18-23.624 10.689-57.167 77.654-156.07-103.27 7.0261 12.339 18.839 86.828 72.429 132.1-46.701 18.537-89.795 4.6065-119.19-132.6-5.6838 12.953-18.412 21.62-14.091 46.26 9.8757 56.315 97.333 117.96 76.454 103.95l-68.31 12.401c-18.913-18.79-25.183-35.061-25.793-50.367l2.3161-52.664c-25.233 61.649 5.013 155.75 20.868 152.81-9.2055-0.44574-13.444 7.387-29.834-5.0324-0.02454 49.506 4.8215 94.939 77.281 83.823-12.157 21.75-9.3559 55.007-70.738 38.892-8.3033 15.959-14.598 34.596-30.517 40.402-26.8-10.058-29.25-26.609-37.059-41.731-18.482 8.1566-52.823 24.298-73.758-37.059 39.585 9.0112 74.629 2.2353 86.339-85.655-11.42 7.5283-23.66 12.323-39.072 6.5421 35.287-24.435 34.543-99.435 17.365-153.09 0 0 4.0723 46.589 4.3491 58.768 0.56374 24.809-10.993 35.987-20.024 44.359l-66.893-11.394c61.606-70.41 61.155-75.016 65.383-100.75 4.8863-29.743-5.3679-36.612-8.0518-47.447-25.418 81.253-35.697 112.2-61.733 126.74-31.566 17.629-62.2 5.1264-59.327 1.0103 61.024-41.589 52.738-89.78 77.82-134.79-54.84 100.22-108.2 168.85-155.06 98.92 61.77-19.266 69.491-47.567 117-108.8-31.036 22.382-102.86 101.86-118 10.065 25.933 2.6219 67.665-18.453 109.31-39.395-75.942 23.031-119.03 7.6428-115.85-61.861 31.491 23.619 67.83 26.632 104.6 27.821-43.675-27.837-114.99-32.284-94.21-114.66 30.279 29.963 61.983 56.79 98.92 72.106-84.956-81.517-122.35-112.07-74.442-173.36 4.2373 32.292 44.834 78.05 84.326 123.4-5.2804-44.042-64.683-104.32 1.5098-126.92z" stroke-width="1px"/>
<path d="m227.86 55.522c31.619 32.973 30.985 50.918 30.828 51.337h103.25c7.6396-13.762 2.8679-25.455 38.55-43.89-31.409-15.365-37.701 11.972-40.492 7.3653-20.349-18.226-27.497 18.463-8.2622 13.714-12.645 17.657-20.713 12.163-28.076 0 15.498-8.5197 5.4762-21.084-3.0438-20.56 4.8101-13.509-3.6431-18.61-8.7937-23.753-16.86 10.669-10.646 26.695-8.2413 24.407-9.8141-3.1477-18.911 13.407-5.7967 19.907-11.693 20.111-22.357 8.3604-27.669 0.40362 33.723-10.796-3.7472-33.592-7.9797-16.055-8.2908-24.19-23.202-13.919-34.277-12.874z" fill="#fcef3c" stroke-width="3"/>
<path d="m280.5 111.42c15.581 52.285 55.208 22.516 49.367-0.07779l-23.252 1.0829c-0.78225 7.9758 0.59686 12.607 6.1557 10.769-14.555 6.1882-20.243-1.8955-20.331-11.399l-11.94-0.375z" fill="#fff" stroke-width="1px"/>
</g>
<g>
<path d="m1.5 1.5v458.87c0 166.31 134.31 301.13 300 301.13 165.69 0 300-134.82 300-301.13v-458.87h-600z" fill="url(#a)"/>
<path d="m1.5 1.5v458.87c0 166.31 134.31 301.13 300 301.13 165.69 0 300-134.82 300-301.13v-458.87h-600z" fill="none" stroke="#000" stroke-width="3"/>
</g>
</svg>
